!!!COM: Scriabin, Alexander
!!!OTL@@FR: Prélude en ré mineur
!!!OTL@@EN: Prelude in D Minor
!!!OPR@@FR: 7 Préludes
!!!OPR@@EN: 7 Preludes
!!!OPS: 17
!!!ONM: 1
!!!OMD: Allegretto [quarter]=112
!!!ODT: 1895
!!!AGN: Prelude
**kern	**kern	**dynam
*staff2	*staff1	*staff1/2
*Ipiano	*Ipiano	*
*clefF4	*clefG2	*
*k[b-]	*k[b-]	*
*d:	*d:	*
*M3/4	*M3/4	*
8A	8r	.
=1	=1	=1
*	*^	*
*	*	*^	*
4A	2f\	4ryy	8fL	p
.	.	.	8a	.
4G#X	.	4b-	8b-	.
.	.	.	8dd	.
4Gn	4ryy	4d 4b-	8ff	.
.	.	.	8eeJ	.
*	*	*v	*v	*
*	*v	*v	*
=2	=2	=2
16%3b-	8gL	.
.	8dd	.
16%3d	.	.
.	8ee	.
16%3G	8gg	<
.	8ccc	(
16%3E	.	(
.	8bb-J	(
=3	=3	=3
20%3AA	8eeeL	[
.	8gg#X	>
20%3E	.	)
.	8bb-	)
20%3c#X	.	)
.	8aa	)
20%3A	.	)
.	8dd#X	)
20%3g	.	)
.	8eeJ	]
=4	=4	=4
8DL	8ffL	>
8AJ	8ee	)
4f	8g#X	)
.	8aJ	)
8r	8dd	]
8d	8r	.
=5	=5	=5
*	*^	*
*	*	*^	*
4d	2b-\	4ryy	8b-L	.
.	.	.	8dd	.
4c#X	.	4ee-	8ee-X	.
.	.	.	8gg	.
4cn	4ryy	4g 4ee-	8bb-	.
.	.	.	8aaJ	.
*	*	*v	*v	*
*	*v	*v	*
*clefG2	*	*
!!LO:LB:g=original
=6	=6	=6
16%3ee-X	8ccL	.
.	8gg	<
16%3g	.	(
.	8aa	(
16%3c	8ccc	(
.	8fff	(
16%3A	.	(
.	8eee-XJ	[
*clefF4	*	*
=7	=7	=7
20%3D	8aaaL	>
.	8ccc#X	)
20%3cn	.	)
.	8eee-X	)
20%3f#X	.	)
.	8ddd	)
20%3c	.	)
.	8gg#X	)
*clefG2	*	*
20%3dd	.	)
.	8aaJ	)
*clefF4	*	*
=8	=8	=8
8E-XL	8cccL	)
8cJ	8bb-	]
4g	8bn	.
.	8ccJ	.
8r	8gg	.
8E-	8r	.
=9	=9	=9
4En	8r	.
.	8bn	<
4B-X 4g	8ccL	.
.	8bb-X	.
8r	8cc	.
8E	8cc#XJ	.
=10	=10	=10
4F	8aaL	.
.	8cc#X	.
4B- 4f	8dd	.
.	8gg	.
8dL 8b-	8ee	.
8FJ	8ffJ	.
!!LO:LB:g=original
=11	=11	=11
4F#X	8r	<
.	8cc#X	.
*clefG2	*	*
4d 4ccn	8ddL	.
.	8cccn	.
8r	8dd	.
*clefF4	*	*
8F#	8ee-XJ	.
=12	=12	=12
4G	8bb-L	.
.	8ee-X	.
*clefG2	*	*
4d 4b-	8een	.
.	8aa	.
4e 4dd	8ff#X	.
.	8ggJ	.
=13	=13	=13
4A	8gg#XL	f
.	8aa	.
*^	*	*
4f	[2dd	8fff	.
.	.	8ddd	.
4gn	.	8ccc	.
.	.	8ggnJ	.
=14	=14	=14	=14
4e	4dd]	8bb-L	.
.	.	8aa	.
*v	*v	*	*
4r	8gg	.
.	8ee	.
4r	8dd	.
.	8b-J	.
*clefF4	*	*
=15	=15	=15
4AA	8g#XL	>
.	8a	.
*^	*	*
2Gn	4f	8b-	.
.	.	8dd	.
.	4e	8cc#X	.
.	.	8gnJ	.
*v	*v	*	*
!!LO:LB:g=original
=16	=16	=16
4AA	8b-L	.
.	8f	.
*^	*	*
4G	4dn	8d#X	.
*	*	*^	*
.	.	4.e	8e	.
8r	8c#X	.	8b-	.
8A	8r	.	8aJ	.
*v	*v	*	*	*
=17	=17	=17	=17
*	*	*^	*
4A	2f\	4ryy	8fL	p
.	.	.	8a	.
4G#X	.	4b-	8b-	.
.	.	.	8dd	.
4Gn	4ryy	4d 4b-	8ff	.
.	.	.	8eeJ	.
*	*	*v	*v	*
*	*v	*v	*
=18	=18	=18
16%3b-	8gL	<
.	8dd	(
16%3d	.	(
.	8ee	(
16%3G	8gg	(
.	8ccc	(
16%3E	.	(
.	8bb-J	[
=19	=19	=19
20%3AA	8eeeL	>
.	8gg#X	)
20%3E	.	)
.	8bb-	)
20%3c#X	.	)
.	8aa	)
20%3A	.	)
.	8dd#X	)
20%3g	.	)
.	8eeJ	)
=20	=20	=20
8DL	8ffL	)
8AJ	8ee	)
4f	8g#X	)
.	8aJ	]
8r	8dd	.
8d	8r	.
!!LO:LB:g=original
=21	=21	=21
*	*^	*
*	*	*^	*
4d	2b-\	4ryy	8b-L	.
.	.	.	8dd	.
4c#X	.	4ee-	8ee-X	.
.	.	.	8gg	.
4cn	4ryy	4g 4ee-	8bb-	.
.	.	.	8aaJ	.
*	*	*v	*v	*
*	*v	*v	*
*clefG2	*	*
=22	=22	=22
16%3ee-X	8ccL	<
.	8gg	(
16%3g	.	(
.	8aa	(
16%3c	8ccc	(
.	8fff	(
16%3A	.	(
.	8eee-XJ	[
*clefF4	*	*
=23	=23	=23
20%3D	8aaaL	.
.	8ccc#X	.
20%3cn	.	.
.	8eee-X	.
20%3f#X	.	.
.	8ddd	.
20%3c	.	.
.	8gg#X	.
*clefG2	*	*
20%3dd	.	.
.	8aaJ	.
*clefF4	*	*
=24	=24	=24
8E-XL	8cccL	.
8cJ	8bb-	.
4g	8bn	.
.	8ccJ	.
8r	8gg	.
8E-	8r	.
=25	=25	=25
4En	8r	.
.	8bn	.
4B-X 4g	8ccL	.
.	8bb-X	.
8r	8cc	<
8E	8cc#XJ	.
!!LO:LB:g=original
=26	=26	=26
4F	8aaL	.
.	8cc#X	.
4B- 4f	8dd	.
.	8gg	.
8dL 8b-	8ee	.
8FJ	8ffJ	.
=27	=27	=27
4F#X	8r	.
.	8cc#X	.
*clefG2	*	*
4d 4ccn	8ddL	.
.	8cccn	.
8r	8dd	<
*clefF4	*	*
8F#	8ee-XJ	.
=28	=28	=28
4G	8bb-L	.
.	8ee-X	.
*clefG2	*	*
4d 4b-	8een	.
.	8aa	.
4e 4dd	8ff#X	.
.	8ggJ	.
=29	=29	=29
4A	8gg#XL	f
.	8aa	.
*^	*	*
4f	[2dd	8fff	.
.	.	8ddd	.
4gn	.	8ccc	.
.	.	8ggnJ	.
=30	=30	=30	=30
4e	4dd]	8bb-L	.
.	.	8aa	.
*v	*v	*	*
4r	8gg	.
.	8ee	.
4r	8dd	.
.	8b-J	.
*clefF4	*	*
!!LO:LB:g=original
=31	=31	=31
4AA	8g#XL	.
.	8a	.
*^	*	*
4F	[2d	8ff	.
.	.	8dd	.
4Gn	.	8cc	.
.	.	8gnJ	.
=32	=32	=32	=32
4E	4d]	8b-L	>
.	.	8a	.
*v	*v	*	*
4r	8g	.
.	8e	.
4r	8d	.
.	8B-J	.
=33	=33	=33
4AAA	8G#XL	p
.	8A	.
*^	*	*
2AA	4F	8B-	.
.	.	8d	.
.	4E	8c#X	.
.	.	8GnJ	.
*v	*v	*	*
=34	=34	=34
4r	8B-L	.
.	8F	.
*^	*	*
2AA	4D	8E-X	.
*	*	*^	*
.	.	4.E	8En	.
.	4C#X	.	8B-	.
.	.	.	8AJ	.
*	*	*v	*v	*
*v	*v	*	*
=35	=35	=35
4r	8c#XL	.
.	8d	.
*^	*	*
2AA	4B-	8e-X	.
.	.	8g	.
.	4A	8f#X	.
.	.	8cnJ	<
*v	*v	*	*
!!LO:LB:g=original
=36	=36	=36
4r	8e-XL	.
.	8B-	.
*^	*	*
2AA	4G	8A-X	.
.	.	8An	.
.	4F#X	8d	.
.	.	8cJ	.
=37	=37	=37	=37
[2.AA	2.G	8B-L	.
.	.	[8d	.
*	*	*^	*
.	.	2d] 2g	8g	.
.	.	.	8a	.
.	.	.	8cc	.
.	.	.	8b-J	.
*	*	*v	*v	*
=38	=38	=38	=38
2.AA]	2.G#X	8B-L	.
.	.	[8d	.
*	*	*^	*
.	.	2d] 2f	8f	.
.	.	.	8a	.
.	.	.	8cc	.
.	.	.	8b-J	.
*	*	*v	*v	*
=39	=39	=39	=39
2.AA	2.A	8FL	.
.	.	8c#X	.
.	.	8d	.
.	.	8f	.
.	.	8b-	.
.	.	8aJ	.
=40	=40	=40	=40
2.AA	2.B-	8FL	p
.	.	8c#X	.
.	.	8d	.
.	.	8f	.
.	.	8a	.
.	.	8g#XJ	.
!!LO:LB:g=original
=41	=41	=41	=41
2.AA	4.Bn	8FL	f
.	.	8c#X	.
.	.	8d	.
.	4.B-X	8f	.
.	.	8a	.
.	.	8g#XJ	.
=42	=42	=42	=42
2.AA	4.A	8FL	.
.	.	8d	.
.	.	8f	.
.	4.G#X	8bn	>
.	.	8ee	.
.	.	8ddJ	.
=43	=43	=43	=43
[2.AA	[2.Gn	8B-XL	.
.	.	8d	.
.	.	8e	.
.	.	8g	.
.	.	8cc	.
.	.	8b-J	.
=44	=44	=44	=44
2.AA]	2.G]	8c#XL	.
.	.	8g#X	.
.	.	8b-	.
.	.	8a	.
.	.	8ff	.
.	.	8eeJ	.
*v	*v	*	*
=45	=45	=45
*	*^	*
4DD	4b-	8b-L	p
.	.	8dd	.
4c#X	4g	8ee-X	.
.	.	8gg	.
4cn	4f#X	8bb-	.
.	.	8aaJ	.
!!LO:LB:g=original
=46	=46	=46	=46
16%3B-	2.g	8gL	.
.	.	8dd	.
16%3E-X	.	.	.
.	.	8ee-X	<
16%3BB-	.	8gg	(
.	.	8ccc	(
16%3DD	.	.	(
.	.	8bb-J	[
*	*v	*v	*
=47	=47	=47
4DD	8ccc#XL	>
.	8gg#X	)
4AA 4Gn 4c#X	8bb-	)
.	8aa	)
4r	8ee-X	)
.	8eenJ	)
=48	=48	=48
4DD	8ffL	)
.	8ee	)
4AA 4F 4d	8.g#X	)
.	16aJk	]
4r	4dd	.
=49	=49	=49
*^	*^	*
2.DD	4r	4A	8AL	pp
.	.	.	8d	.
.	4C#X	4G	8e-X	.
.	.	.	8g	.
.	4Cn	4F#X	8b-	.
.	.	.	8aJ	.
=50	=50	=50	=50	=50
[2.DD	2.BB-	2.G	8GL	.
.	.	.	8d	.
.	.	.	8e-X	<
.	.	.	8g	(
.	.	.	8cc	(
.	.	.	8b-J	[
*	*	*v	*v	*
!!LO:LB:g=original
=51	=51	=51	=51
4DD]	4AA	8cc#XL	>
.	.	8g#X	)
*v	*v	*	*
4AA 4Gn 4c#X	8b-	)
.	8a	)
4r	8e-X	)
.	8enJ	]
=52	=52	=52
[4DD	8fL	.
.	8e	.
4.DD] 4.AA 4.F	8G#X	.
.	8AJ	.
.	4d	.
[8AA	.	.
=53	=53	=53
4DD 4AA]	8cc#XL	.
.	8g#X	.
4.AA 4.Gn 4.c#X	8b-	.
.	8a	.
.	8e-X	.
[8AA	8enJ	.
=54	=54	=54
[4DD 4AA_	8fL	.
.	8eJ	.
2DD_ 2AA_ [2F	4.G#X	.
.	8A	.
=55	=55	=55
2.DD_ 2.AA_ 2.F_	[2.d	.
=56	=56	=56
2DD] 2AA] 2F]	2d]	.
4r	4r	.
==	==	==
*-	*-	*-
!!!system-decoration: {(*)}
!!!filter: flipper -a
!!!RDF**dynam: > = dim.
!!!ENC: Bryan Jacob Bell
!!!END: November 2021 to April 2022
!!!PED: Konstantin Igumnov and Yakov Milstein
!!!PTL: A.N. Skryabin: Polnoe sobranie sochinenii dlia fortepiano (Muzgiz)
!!!URL-pdf: https://github.com/bel28kent/Mysterium/blob/main/reference_editions/op17.pdf
